source/img/icon-phone.svg

<svg fill="none" height="24" viewBox="0 0 24 24" width="24" xmlns="http://www.w3.org/2000/svg"><path d="m22 16.9201v3c.0011.2785-.0559.5542-.1675.8093-.1116.2552-.2752.4843-.4804.6726-.2053.1882-.4475.3316-.7114.4208-.2638.0892-.5433.1224-.8207.0973-3.0772-.3344-6.033-1.3859-8.63-3.07-2.41618-1.5353-4.46467-3.5838-6.00001-6-1.69002-2.6088-2.74175-5.57901-3.07-8.67-.02499-.27654.00788-.55524.0965-.81838.08863-.26313.23107-.50493.41827-.71s.41504-.36891.66903-.4811c.25398-.11219.52854-.17026.8062-.17052h3c.48531-.00478.9558.16708 1.32377.48353s.60831.75591.67623 1.23647c.12663.96006.36145 1.90272.7 2.81.13455.35792.16367.74691.08391 1.12088-.07975.37396-.26504.71723-.53391.98912l-1.27 1.27c1.42356 2.5035 3.49641 4.5764 6.00001 6l1.27-1.27c.2719-.2689.6151-.4542.9891-.5339.374-.0798.763-.0506 1.1209.0839.9073.3385 1.8499.5734 2.81.7.4858.0685.9294.3132 1.2465.6875.3172.3743.4857.8521.4735 1.3425z" stroke="#397dff" stroke-linecap="round" stroke-linejoin="round"/></svg>

<svg width="24" height="24" viewBox="0 0 24 24" fill="none" xmlns="http://www.w3.org/2000/svg">
<path d="M22 16.9201V19.9201C22.0011 20.1986 21.9441 20.4743 21.8325 20.7294C21.7209 20.9846 21.5573 21.2137 21.3521 21.402C21.1468 21.5902 20.9046 21.7336 20.6407 21.8228C20.3769 21.912 20.0974 21.9452 19.82 21.9201C16.7428 21.5857 13.787 20.5342 11.19 18.8501C8.77382 17.3148 6.72533 15.2663 5.18999 12.8501C3.49997 10.2413 2.44824 7.27109 2.11999 4.1801C2.095 3.90356 2.12787 3.62486 2.21649 3.36172C2.30512 3.09859 2.44756 2.85679 2.63476 2.65172C2.82196 2.44665 3.0498 2.28281 3.30379 2.17062C3.55777 2.05843 3.83233 2.00036 4.10999 2.0001H7.10999C7.5953 1.99532 8.06579 2.16718 8.43376 2.48363C8.80173 2.80008 9.04207 3.23954 9.10999 3.7201C9.23662 4.68016 9.47144 5.62282 9.80999 6.5301C9.94454 6.88802 9.97366 7.27701 9.8939 7.65098C9.81415 8.02494 9.62886 8.36821 9.35999 8.6401L8.08999 9.9101C9.51355 12.4136 11.5864 14.4865 14.09 15.9101L15.36 14.6401C15.6319 14.3712 15.9751 14.1859 16.3491 14.1062C16.7231 14.0264 17.1121 14.0556 17.47 14.1901C18.3773 14.5286 19.3199 14.7635 20.28 14.8901C20.7658 14.9586 21.2094 15.2033 21.5265 15.5776C21.8437 15.9519 22.0122 16.4297 22 16.9201Z" stroke="#397DFF" stroke-linecap="round" stroke-linejoin="round"/>
</svg>
